cookie-law-info/lite/admin/dist/img/check-fill.svg

<svg width="32" height="32" viewBox="0 0 32 32" fill="none" xmlns="http://www.w3.org/2000/svg">
    <path
        d="M16 1.33398L26.956 3.76865C27.2521 3.83447 27.5169 3.99927 27.7067 4.23586C27.8965 4.47244 27.9999 4.76667 28 5.06998V18.386C27.9999 19.703 27.6747 20.9996 27.0532 22.1607C26.4317 23.3218 25.5332 24.3115 24.4373 25.042L16 30.6673L7.56267 25.042C6.46686 24.3118 5.56832 23.3223 4.94682 22.1614C4.32531 21.0005 4.00008 19.7041 4 18.3873V5.06998C4.00005 4.76667 4.10352 4.47244 4.29332 4.23586C4.48312 3.99927 4.74792 3.83447 5.044 3.76865L16 1.33398ZM21.936 10.9633L15.336 17.562L11.5653 13.7913L9.68 15.6767L15.3373 21.334L23.8227 12.8487L21.936 10.9633Z"
        fill="#2DAD70"/>
</svg>

<svg width="32" height="32" fill="none" xmlns="http://www.w3.org/2000/svg"><path d="m16 1.334 10.956 2.435A1.333 1.333 0 0 1 28 5.07v13.316a8 8 0 0 1-3.563 6.656L16 30.667l-8.437-5.625A7.997 7.997 0 0 1 4 18.387V5.07a1.333 1.333 0 0 1 1.044-1.301L16 1.334zm5.936 9.63-6.6 6.598-3.77-3.77-1.886 1.885 5.657 5.657 8.486-8.485-1.887-1.886z" fill="#2DAD70"/></svg>
